svg/300/rounded/view_comfy_alt-fill.svg

<svg xmlns="http://www.w3.org/2000/svg" width="48" height="48" viewBox="0 -960 960 960"><path d="M353.847-560H146.154q-18.98 0-32.566-13.586-13.587-13.586-13.587-32.567v-207.693q0-18.98 13.587-32.566 13.586-13.587 32.566-13.587h207.693q18.981 0 32.567 13.587Q400-832.826 400-813.846v207.693q0 18.981-13.586 32.567Q372.828-560 353.847-560Zm0 459.999H146.154q-18.98 0-32.566-13.587-13.587-13.586-13.587-32.566v-207.693q0-18.981 13.587-32.567Q127.174-400 146.154-400h207.693q18.981 0 32.567 13.586Q400-372.828 400-353.847v207.693q0 18.98-13.586 32.566-13.586 13.587-32.567 13.587ZM813.846-560H606.153q-18.981 0-32.567-13.586Q560-587.172 560-606.153v-207.693q0-18.98 13.586-32.566 13.586-13.587 32.567-13.587h207.693q18.98 0 32.566 13.587 13.587 13.586 13.587 32.566v207.693q0 18.981-13.587 32.567Q832.826-560 813.846-560Zm0 459.999H606.153q-18.981 0-32.567-13.587Q560-127.174 560-146.154v-207.693q0-18.981 13.586-32.567Q587.172-400 606.153-400h207.693q18.98 0 32.566 13.586 13.587 13.586 13.587 32.567v207.693q0 18.98-13.587 32.566-13.586 13.587-32.566 13.587Z"/></svg>

<svg xmlns="http://www.w3.org/2000/svg" width="48" height="48" viewBox="0 -960 960 960"><path d="M353.85-560h-207.7q-18.98 0-32.56-13.59Q100-587.17 100-606.15v-207.7q0-18.98 13.59-32.56Q127.17-860 146.15-860h207.7q18.98 0 32.56 13.59Q400-832.83 400-813.85v207.7q0 18.98-13.59 32.56Q372.83-560 353.85-560Zm0 460h-207.7q-18.98 0-32.56-13.59Q100-127.17 100-146.15v-207.7q0-18.98 13.59-32.56Q127.17-400 146.15-400h207.7q18.98 0 32.56 13.59Q400-372.83 400-353.85v207.7q0 18.98-13.59 32.56Q372.83-100 353.85-100Zm460-460h-207.7q-18.98 0-32.56-13.59Q560-587.17 560-606.15v-207.7q0-18.98 13.59-32.56Q587.17-860 606.15-860h207.7q18.98 0 32.56 13.59Q860-832.83 860-813.85v207.7q0 18.98-13.59 32.56Q832.83-560 813.85-560Zm0 460h-207.7q-18.98 0-32.56-13.59Q560-127.17 560-146.15v-207.7q0-18.98 13.59-32.56Q587.17-400 606.15-400h207.7q18.98 0 32.56 13.59Q860-372.83 860-353.85v207.7q0 18.98-13.59 32.56Q832.83-100 813.85-100Z"/></svg>
